ALY_Tests/ALY_Button_Style/ALY_Button_Style/Assets/Icons/InfoIcon.svg

<svg xmlns="http://www.w3.org/2000/svg" id="infoIcon" viewBox="-1 -1 123 123">
      <ellipse rx="60.667" ry="60.667" cx="60.667" cy="60.667" stroke="White" stroke-width="1.33" fill="#d76a29" />
      <path d="m78.055 99.978c-3.7655 1.4765-6.7698 2.5995-9.0091 3.3915-2.2507 0.778-4.8569 1.159-7.8183 1.159-4.563 0-8.1073-1.104-10.634-3.331-2.5334-2.2067-3.7955-5.0402-3.7955-8.4565 0-1.3551 0.0915-2.7104 0.3-4.0907 0.1721-1.379 0.4899-2.949 0.902-4.7099l4.7098-16.657c0.4107-1.6001 0.7787-3.1086 1.0487-4.5315 0.3001-1.4293 0.4345-2.7292 0.4345-3.9061 0-2.1351-0.4345-3.6248-1.3124-4.4462-0.8768-0.8402-2.5571-1.2697-5.0339-1.2697-1.2209 0-2.4719 0.1959-3.7416 0.5639-1.2635 0.4044-2.3676 0.7613-3.2743 1.1104l1.2572-5.1396c3.0785-1.2698 6.016-2.3186 8.837-3.2127 2.8021-0.9018 5.4635-1.3377 7.9654-1.3377 4.5201 0 8.0156 1.079 10.464 3.2694 2.4591 2.1954 3.6725 5.0464 3.6725 8.5306 0 0.7296-0.0855 2.0044-0.2639 3.8256-0.1594 1.8337-0.4836 3.4966-0.9257 5.0114l-4.6908 16.612c-0.3806 1.3251-0.7122 2.8462-1.0313 4.563-0.3065 1.7106-0.4598 2.9931-0.4598 3.876 0 2.208 0.4912 3.7101 1.4911 4.5077 0.9744 0.785 2.7038 1.2081 5.1329 1.2081 1.1469 0 2.4404-0.2146 3.8761-0.6128 1.4657-0.4057 2.5081-0.7611 3.1399-1.055l-1.2397 5.1269z"
            fill="White" />
      <path d="m77.221 34.701c-2.1892 2.0232-4.8141 3.0545-7.8988 3.0545-3.0785 0-5.7272-1.0313-7.9353-3.0545-2.2017-2.0485-3.3058-4.5015-3.3058-7.4015 0-2.8824 1.1041-5.3667 3.3058-7.4152 2.2081-2.0548 4.8568-3.0784 7.9353-3.0784 3.0847 0 5.7096 1.0236 7.8988 3.0784 2.184 2.0485 3.2817 4.5328 3.2817 7.4152 0 2.9-1.0977 5.353-3.2817 7.4015z"
            fill="White" />
</svg>

<svg xmlns="http://www.w3.org/2000/svg" id="infoIcon" width="100%" height="100%" viewBox="0 0 121.334 121.334">
      <g>
            <defs>
                  <linearGradient gradientUnits="userSpaceOnUse" id="id_idp845686528" x1="14.5858%" x2="86.2523%"
                        y1="84.9899%" y2="15.8234%">
                        <stop offset="0" stop-color="#E398ED" />
                        <stop offset="0.255814" stop-color="#F1CBF6" />
                        <stop offset="1" stop-color="#FFFFFF" />
                  </linearGradient>
            </defs>
            <ellipse cx="60.6670203252" cy="60.6670203252" fill="url(#id_idp845686528)" rx="60.667" ry="60.667"
                  stroke="#9709AD" stroke-linejoin="Round" stroke-width="1.33333" />
      </g>
      <path d="M 78.0551,99.9775C 74.2896,101.454 71.2853,102.577 69.046,103.369C 66.7953,104.147 64.1891,104.528 61.2277,104.528C 56.6647,104.528 53.1204,103.424 50.5934,101.197C 48.06,98.9903 46.7979,96.1568 46.7979,92.7405C 46.7979,91.3854 46.8894,90.0301 47.0979,88.6498C 47.27,87.2708 47.5878,85.7008 47.9999,83.9399L 52.7097,67.2833C 53.1204,65.6832 53.4884,64.1747 53.7584,62.7518C 54.0585,61.3225 54.1929,60.0226 54.1929,58.8457C 54.1929,56.7106 53.7584,55.2209 52.8805,54.3995C 52.0037,53.5593 50.3234,53.1298 47.8466,53.1298C 46.6257,53.1298 45.3747,53.3257 44.105,53.6937C 42.8415,54.0981 41.7374,54.455 40.8307,54.8041L 42.0879,49.6645C 45.1664,48.3947 48.1039,47.3459 50.9249,46.4518C 53.727,45.55 56.3884,45.1141 58.8903,45.1141C 63.4104,45.1141 66.9059,46.1931 69.3538,48.3835C 71.8129,50.5789 73.0263,53.4299 73.0263,56.9141C 73.0263,57.6437 72.9408,58.9185 72.7624,60.7397C 72.603,62.5734 72.2788,64.2363 71.8367,65.7511L 67.1459,82.3636C 66.7653,83.6887 66.4337,85.2098 66.1146,86.9266C 65.8081,88.6372 65.6548,89.9197 65.6548,90.8026C 65.6548,93.0106 66.146,94.5127 67.1459,95.3103C 68.1203,96.0953 69.8497,96.5184 72.2788,96.5184C 73.4257,96.5184 74.7192,96.3038 76.1549,95.9056C 77.6206,95.4999 78.663,95.1445 79.2948,94.8506L 78.0551,99.9775 Z "
            fill="#7A0F89" fill-rule="nonzero" />
      <path d="M 77.2212,34.701C 75.032,36.7242 72.4071,37.7555 69.3224,37.7555C 66.2439,37.7555 63.5952,36.7242 61.3871,34.701C 59.1854,32.6525 58.0813,30.1995 58.0813,27.2995C 58.0813,24.4171 59.1854,21.9328 61.3871,19.8843C 63.5952,17.8295 66.2439,16.8059 69.3224,16.8059C 72.4071,16.8059 75.032,17.8295 77.2212,19.8843C 79.4052,21.9328 80.5029,24.4171 80.5029,27.2995C 80.5029,30.1995 79.4052,32.6525 77.2212,34.701 Z "
            fill="#7A0F89" fill-rule="nonzero" />
</svg>
